X: 9076
T: Da Lass Dat Made Da Bed For Me
R: reel
M: 4/4
K: Adorian
AGAB dBGB|A2Bd efed|eA (3AAA GABd|1 e2dB G3B:|2 e2dB G4:|
egga g2dg|eaag a3a|gage defd|e2dB G2BG|
fgga g2dg|eaag a3a|gage defd|e2dB A3B||

